X: 040353
T: Downtown Jig 
C: BB
R: jig
Q: 1/8=320
M: 6/8
L: 1/8
K: D
"D"dcB AFF|"Bm"dFF BFF|"D"dcB "F#m"AFE|"D"DEF "A"ABc|
"D"dcB AFF|"Bm"dFF BFF|"D"ABd "F#m"efa|"G"gfg "A"ecA :|
"D"ABd "Em"e2d|"A"eaf "Em"e2d|"G"Bdd "D"fdd|"Bm7"baf "Em"edB|
"D"ABd "Em"e2d|"A"eaf "Em"e2d|"Bm"dfb "F#m"afe|1 "D"fef "Bm7"dBA :|2\
"D" fef d3||
